X: 25656
T: Martin Rochford's
R: reel
M: 4/4
K: Gmajor
G3F GABd|dBBA Be e2|GEDE G2 ec|dBAc BEED|
G3F GABd|dBBA Be e2|GEDE G2 ec|dBAc BE E2||
g2 eg fedA|Be e2 Beef|g2 bg agfe|dBAc BE E2|
g2 eg fedA|Beed e3f|gb b2 fa a2|dBAc BE E2||

